src/pos-icons/cctv.svg

<svg height="24" viewBox="0 0 24 24" width="24" xmlns="http://www.w3.org/2000/svg"><path d="m18.15 4.94c-.38-.03-.78.06-1.15.26l-8.65 5c-.96.56-1.28 1.8-.73 2.74l1.5 2.59c.55.97 1.77 1.29 2.73.74l1.8-1.04c.27.46.67.83 1.16 1.04v1.77c0 1.09.89 1.96 2 1.96h5.19v-1.96h-5.19v-1.77c.91-.4 1.5-1.3 1.5-2.27 0-.46-.12-.89-.34-1.27l2.53-1.46c.97-.56 1.3-1.77.74-2.74l-1.5-2.59c-.34-.6-.95-.94-1.59-1m-11.93 8.23-4.22.7.75 1.3 2 3.46.75 1.3 2.72-3.3z"/></svg>

<?xml version="1.0" encoding="UTF-8"?><!DOCTYPE svg PUBLIC "-//W3C//DTD SVG 1.1//EN" "http://www.w3.org/Graphics/SVG/1.1/DTD/svg11.dtd"><svg xmlns="http://www.w3.org/2000/svg" xmlns:xlink="http://www.w3.org/1999/xlink" version="1.1" id="mdi-cctv" width="24" height="24" viewBox="0 0 24 24"><path d="M18.15,4.94C17.77,4.91 17.37,5 17,5.2L8.35,10.2C7.39,10.76 7.07,12 7.62,12.94L9.12,15.53C9.67,16.5 10.89,16.82 11.85,16.27L13.65,15.23C13.92,15.69 14.32,16.06 14.81,16.27V18.04C14.81,19.13 15.7,20 16.81,20H22V18.04H16.81V16.27C17.72,15.87 18.31,14.97 18.31,14C18.31,13.54 18.19,13.11 17.97,12.73L20.5,11.27C21.47,10.71 21.8,9.5 21.24,8.53L19.74,5.94C19.4,5.34 18.79,5 18.15,4.94M6.22,13.17L2,13.87L2.75,15.17L4.75,18.63L5.5,19.93L8.22,16.63L6.22,13.17Z" /></svg>
